icons/airplay-fill.svg

<svg xmlns="http://www.w3.org/2000/svg" width="24" height="24" fill="none"><g clip-path="url(#a)"><g><path fill="#121212" d="M12.4 13.533L17.4 20.2C17.4557 20.2743 17.4896 20.3626 17.498 20.4551C17.5063 20.5476 17.4887 20.6406 17.4472 20.7236C17.4057 20.8067 17.3419 20.8765 17.2629 20.9253C17.1839 20.9741 17.0929 21 17 21H7C6.90715 21 6.81613 20.9741 6.73714 20.9253C6.65815 20.8765 6.59432 20.8067 6.55279 20.7236C6.51126 20.6406 6.49368 20.5476 6.50202 20.4551C6.51036 20.3626 6.54429 20.2743 6.6 20.2L11.6 13.533C11.6466 13.4709 11.707 13.4205 11.7764 13.3858C11.8458 13.3511 11.9224 13.333 12 13.333C12.0776 13.333 12.1542 13.3511 12.2236 13.3858C12.293 13.4205 12.3534 13.4709 12.4 13.533ZM18 19V17H20V5H4V17H6V19H2.992C2.86113 18.9997 2.7316 18.9736 2.61084 18.9232C2.49008 18.8727 2.38047 18.7989 2.2883 18.706C2.19614 18.6131 2.12322 18.5029 2.07375 18.3818C2.02427 18.2606 1.99921 18.1309 2 18V4C2 3.448 2.455 3 2.992 3H21.008C21.556 3 22 3.445 22 4V18C22 18.552 21.545 19 21.008 19H18Z"/></g></g><defs><clipPath id="a"><rect width="24" height="24" fill="white"/></clipPath></defs></svg>

<svg width="24" height="24" fill="none" xmlns="http://www.w3.org/2000/svg"><g clip-path="url(#a)"><path d="m12.4 13.533 5 6.667a.5.5 0 0 1-.4.8H7a.5.5 0 0 1-.4-.8l5-6.667a.5.5 0 0 1 .8 0ZM18 19v-2h2V5H4v12h2v2H2.992A.996.996 0 0 1 2 18V4c0-.552.455-1 .992-1h18.016c.548 0 .992.445.992 1v14c0 .552-.455 1-.992 1H18Z" /></g><defs><clipPath id="a"><path fill="#fff" d="M0 0h24v24H0z"/></clipPath></defs></svg>
